svgs/sharp-regular/cabin.svg

<svg xmlns="http://www.w3.org/2000/svg" viewBox="0 0 512 512"><!--! Font Awesome Pro 6.6.0 by @fontawesome - https://fontawesome.com License - https://fontawesome.com/license (Commercial License) Copyright 2024 Fonticons, Inc. --><path d="M256 58.2L427.3 176 84.7 176 256 58.2zM432 121L256 0 0 176l0 48 48 0 416 0 48 0 0-48-32-22 0-122-48 0 0 89zM32 272l0 48 160 0 0-48L32 272zm0 192l0 48 160 0 0-48L32 464zm160-96L32 368l0 48 160 0 0-48zm128-96l0 48 160 0 0-48-160 0zM480 464l-160 0 0 48 160 0 0-48zM320 368l0 48 160 0 0-48-160 0zM256 160a32 32 0 1 0 0-64 32 32 0 1 0 0 64z"/></svg>

<svg xmlns="http://www.w3.org/2000/svg" viewBox="0 0 512 512"><!--! Font Awesome Pro 6.4.2 by @fontawesome - https://fontawesome.com License - https://fontawesome.com/license (Commercial License) Copyright 2023 Fonticons, Inc. --><path d="M256 58.2L427.3 176H84.7L256 58.2zM432 121L256 0 0 176v48H48 464h48V176l-32-22V32H432v89zM32 272v48H192V272H32zm0 192v48H192V464H32zm160-96H32v48H192V368zm128-96v48H480V272H320zM480 464H320v48H480V464zM320 368v48H480V368H320zM256 160a32 32 0 1 0 0-64 32 32 0 1 0 0 64z"/></svg>
